frontend/svgs/biz023.svg

<?xml version="1.0" encoding="UTF-8"?> <svg width="100px" height="100px" viewBox="0 0 100 100" version="1.1" xmlns="http://www.w3.org/2000/svg" xmlns:xlink="http://www.w3.org/1999/xlink"> <g id="23.-JPY" stroke="none" stroke-width="1" fill="none" fill-rule="evenodd" stroke-linecap="round" stroke-linejoin="round"> <rect id="Layer-1" stroke="#A4B8CE" stroke-width="4" fill="#A4B8CE" x="2" y="2" width="96" height="96" rx="23"></rect> <path d="M32.7692308,27.1538462 L67.3846154,27.1538462" id="Layer-2" stroke="#FFFFFF" stroke-width="6"></path> <path d="M27,38.6923077 L73.1538462,38.6923077" id="Layer-3" stroke="#FFFFFF" stroke-width="6"></path> <path d="M73.1538462,59.9832481 L73.1538462,68.1160592 C73.1538462,70.983319 70.82864,73.3076923 67.9609678,73.3076923 L61.0390322,73.3076923 C58.1710847,73.3076923 55.8461538,70.9827293 55.8461538,68.1160592 L55.8461538,39.1204927 L55.8461538,43.8839408" id="Layer-4" stroke="#FFFFFF" stroke-width="6"></path> <path d="M44.3076923,38.6923077 C44.3076923,38.6923077 44.5082632,51.3125 39.2911659,59.2835036 C34.0740685,67.2545072 27.5769231,72.7307692 27.5769231,72.7307692" id="Layer-5" stroke="#FFFFFF" stroke-width="6"></path> </g> </svg>

<svg width="100" height="100" xmlns="http://www.w3.org/2000/svg"><g fill="none" fill-rule="evenodd" stroke-linecap="round" stroke-linejoin="round"><rect stroke="#A4B8CE" stroke-width="4" fill="#A4B8CE" x="2" y="2" width="96" height="96" rx="23"/><path d="M32.77 27.154h34.615M27 38.692h46.154M73.154 59.983v8.133a5.192 5.192 0 01-5.193 5.192h-6.922a5.193 5.193 0 01-5.193-5.192V39.12v4.764M44.308 38.692s.2 12.62-5.017 20.592c-5.217 7.97-11.714 13.447-11.714 13.447" stroke="#FFF" stroke-width="6"/></g></svg>
